assets/img/social/wt.svg

<svg width="30" height="30" viewBox="0 0 30 30" fill="none" xmlns="http://www.w3.org/2000/svg">
<path d="M25.1999 8.54982C21.5999 2.99982 14.2499 1.34982 8.54991 4.79982C2.99991 8.24982 1.19991 15.7498 4.79991 21.2998L5.09991 21.7498L3.89991 26.2498L8.39991 25.0498L8.84991 25.3498C10.7999 26.3998 12.8999 26.9998 14.9999 26.9998C17.2499 26.9998 19.4999 26.3998 21.4499 25.1998C26.9999 21.5998 28.6499 14.2498 25.1999 8.54982ZM22.0499 20.0998C21.4499 20.9998 20.6999 21.5998 19.6499 21.7498C19.0499 21.7498 18.2999 22.0498 15.2999 20.8498C12.7499 19.6498 10.6499 17.6998 9.14991 15.4498C8.24991 14.3998 7.79991 13.0498 7.64991 11.6998C7.64991 10.4998 8.09991 9.44982 8.84991 8.69982C9.14991 8.39982 9.44991 8.24982 9.74991 8.24982H10.4999C10.7999 8.24982 11.0999 8.24982 11.2499 8.84982C11.5499 9.59982 12.2999 11.3998 12.2999 11.5498C12.4499 11.6998 12.4499 11.9998 12.2999 12.1498C12.4499 12.4498 12.2999 12.7498 12.1499 12.8998C11.9999 13.0498 11.8499 13.3498 11.6999 13.4998C11.3999 13.6498 11.2499 13.9498 11.3999 14.2498C11.9999 15.1498 12.7499 16.0498 13.4999 16.7998C14.3999 17.5498 15.2999 18.1498 16.3499 18.5998C16.6499 18.7498 16.9499 18.7498 17.0999 18.4498C17.2499 18.1498 17.9999 17.3998 18.2999 17.0998C18.5999 16.7998 18.7499 16.7998 19.0499 16.9498L21.4499 18.1498C21.7499 18.2998 22.0499 18.4498 22.1999 18.5998C22.3499 19.0498 22.3499 19.6498 22.0499 20.0998Z" fill="#8ABC36"/>
</svg>

<svg width="30" height="30" fill="none" xmlns="http://www.w3.org/2000/svg"><path d="M25.2 8.55C21.6 3 14.25 1.35 8.55 4.8 3 8.25 1.2 15.75 4.8 21.3l.3.45-1.2 4.5 4.5-1.2.45.3C10.8 26.4 12.9 27 15 27c2.25 0 4.5-.6 6.45-1.8 5.55-3.6 7.2-10.95 3.75-16.65zM22.05 20.1c-.6.9-1.35 1.5-2.4 1.65-.6 0-1.35.3-4.35-.9-2.55-1.2-4.65-3.15-6.15-5.4-.9-1.05-1.35-2.4-1.5-3.75 0-1.2.45-2.25 1.2-3 .3-.3.6-.45.9-.45h.75c.3 0 .6 0 .75.6.3.75 1.05 2.55 1.05 2.7.15.15.15.45 0 .6.15.3 0 .6-.15.75-.15.15-.3.45-.45.6-.3.15-.45.45-.3.75.6.9 1.35 1.8 2.1 2.55.9.75 1.8 1.35 2.85 1.8.3.15.6.15.75-.15.15-.3.9-1.05 1.2-1.35.3-.3.45-.3.75-.15l2.4 1.2c.3.15.6.3.75.45.15.45.15 1.05-.15 1.5z" fill="#8ABC36"/></svg>
